X:1
T:Viderunt omnes
T:Viderunt omnes
T:André Vierendeels
C:André Vierendeels
%%score [ 1 2 3 4 ]
L:1/8
Q:1/4=120
M:2/2
K:F
V:1 treble nm="Soprano" snm="S"
V:2 treble nm="Alto" snm="A"
V:3 treble-8 nm="Tenor" snm="T"
V:4 bass nm="Bass" snm="B"
V:1
 F2 G2 G2 F2- | F2 D4 E2 | C2 D2 D4 | D2 F2 G2 G2 | A2 A2 c4 | G2 G2 F2 A2- | A2 G2 E4 | %7
w: Vi- * de- *|* runt _|o- * mnes|fi- * * nes|_ ter- *|* rae _ _|_ _ _|
 F2 G2 A2 G2 | A4 F2 A2 | c4 A2 G2 | E2 F2 F4 | F4 D2 F2- | F2 E2 C2 F2- | F2 A4 G2- | G4 G2 A2 | %15
w: sa- lu- * *|ta- * *||* * re|De- * *|||* i _|
 F2 E2 F4 | D8 | E8 | D8 | D8 |] %20
w: _ _ _|no-|||stri.|
V:2
 D2 E3 DCB, | A,B, D4 C2 | G2 D2 D4 | A,B,CD E4 | F4 G4 | D8 | F2 ED C4 | D2 C4 E2 | D2 F2 DEFD | %9
w: Vi de- * * *|* * * runt|o- * mnes|fi- * * * *|nes ter-||* * * rae|sa- lu- *|ta- * * * * *|
 E4 D2 E2 | C2 D3 CB,A,- | A,2 B,C D4- | D2 C2- CB,A,B, | CD F2 E4 | CDEF E2 F2 | C4 D4 | %16
w: |re De- * * *||||* * * * * i|no- *|
 FECD F2 D2 | CDEF GD E2 | AGFE DCDE | D8 |] %20
w: |||stri.|
V:3
 A2 c3 BAG | F4 G4 | E2 F3 GAB | AGAG c4 | cBAG EFGA | =B3 c A4 | d2 c2 cBAG | A2 G2 F2 G2 | %8
w: Vi- de- * * *|* runt|o- mnes _ _ _|fi- * * * *|nes _ _ _ ter- * * *||* * rae _ _ _|sa- lu- * *|
 A2 D2 FG A2 | G4 FGAB | A2 F2 GABc | d3 c A4 | G2 cB AGFG | A4 cBAG | cBAB c4 | A4- ABcd | %16
w: ta- * * * *||re De- * * * *||||* * * * i|no- * * * *|
 A4 F2 A2 | cBAG cB A2 | FG A2 dcBG | A8 |] %20
w: |||stri.|
V:4
 D,2 C,4 D,2- | D,4 B,,2 C,2- | C,2 B,,2 D,4 | D,4 C,2 D,E, | F,4 C,D,E,F, | E,4 F,2 D,2- | %6
w: Vi- de- *|* runt o-|* * mnes|fi- * * *|nes ter- * * *||
 D,2 E,2 C,4 | D,2 E,2 F,2 C,2 | D,E,F,G, D,4 | C,4 F,2 C,2 | A,,2 D,3 A,G,F, | D,4- D,E, D,2 | %12
w: * * rae|sa- lu- * *|ta- * * * *||re De- * * *||
 B,,2 A,,2 C,2 D,2 | F,2 D,2 C,4- | C,4 z2 F,2- | F,2 A,2 D,4- | D,2 E,F, D,2 F,2 | %17
w: i,- De _ _|_ _ i-|_ no-|||
 E,D,C,B,, C,D, C,2 | F,E,D,C, B,,A,, G,,2 | D,8 |] %20
w: ||stri.|

